resources/godot_icons/dark/SkeletonIK3D.svg

<svg height="16" viewBox="0 0 16 16" width="16" xmlns="http://www.w3.org/2000/svg"><path d="m6 2a4 4 0 0 0 -4 4 4 4 0 0 0 2 3.453125v3.546875a2 2 0 0 0 1 1.732422 2 2 0 0 0 1 .265625v.001953h2v-2h-1v-1h-1v1h-1v-3.1308594-.8691406h1v1h1v-1h1v-1h-1v-1h1v-5zm-1 3a1 1 0 0 1 1 1 1 1 0 0 1 -1 1 1 1 0 0 1 -1-1 1 1 0 0 1 1-1z" fill="#e0e0e0"/><path d="m8 2v5h1v1h-1v1h1v1h1v-1h1v.8671875 3.1328125h-1v-1h-1v1h-1v2h2v-.001953a2 2 0 0 0 1-.265625 2 2 0 0 0 1-1.732422v-3.546875a4 4 0 0 0 2-3.453125 4 4 0 0 0 -4-4zm3 3a1 1 0 0 1 1 1 1 1 0 0 1 -1 1 1 1 0 0 1 -1-1 1 1 0 0 1 1-1z" fill="#fc9c9c"/></svg>

<svg height="16" viewBox="0 0 16 16" width="16" xmlns="http://www.w3.org/2000/svg"><path d="M6 2a4 4 0 0 0-2 7.453V13a2 2 0 0 0 2 2h2v-2H7v-1H6v1H5V9h1v1h1V9h1V8H7V7h1V2zM5 5a1 1 0 0 1 0 2 1 1 0 0 1 0-2z" fill="#e0e0e0"/><path d="M8 2v5h1v1H8v1h1v1h1V9h1v4h-1v-1H9v1H8v2h2a2 2 0 0 0 2-2V9.453A4 4 0 0 0 10 2zm3 3a1 1 0 0 1 0 2 1 1 0 0 1 0-2z" fill="#fc9c9c"/></svg>
